!!!!SEGMENT: pl-wtm--r-242-m_moniuszko-stanislaw--z-kijowskiej-gwiazdy.krn
!!!cenid: 18xx:1648
!!!COM: Moniuszko, Stanisław
!!!COM-rismID: pe30008351
!!!CDT: 1819/05/05-1872/06/04
!!!CNT: Polish
!!!OTL: Z kijowskiej gwiazdy
!!!PDT:
!!!AGN: Secular
!!!SMS-siglum: PL-Wtm
!!!SMS-shelfmark: R 242/M
!!!SMS-shelfwork: W
!!!SMS-variant:
!!!SMS-altvar:
!!!NIFC-rismSourceID: 1001063778
!!!NIFC-rismChildID: 1001063778
!!!NIFC-islandoraID:
!!!URL-pdf-islandora:
!!!URL-scan:
!!!IIIF:
!!!ONB-nifc:
!!!AIN: 2 empty
!!!key:
**kern	**kern	**dynam	**kern	**text	**text	**dynam
*part2	*part2	*part2	*part1	*part1	*part1	*part1
*staff3	*staff2	*	*staff1	*staff1	*staff1	*
*Iempty	*Iempty	*	*Iempty	*	*	*
*I"	*I"	*	*I"	*	*	*
*>[A,B,B,C]	*>[A,B,B,C]	*	*>[A,B,B,C]	*	*	*
*>A	*>A	*	*>A	*	*	*
*clefF4	*clefG2	*	*clefG2	*	*	*
*k[f#c#g#]	*k[f#c#g#d#]	*	*k[f#c#g#d#]	*	*	*
*e:	*e:	*	*e:	*	*	*
*M12/8	*M12/8	*	*M12/8	*	*	*
*all\right	*all\right	*	*all\right	*	*	*
=1	=1	=1	=1	=1	=1	=1
*^	*	*	*	*	*	*
!	!	!LO:TX:a:i:t=un poco agitato.	!	!	!	!	!
!LO:TX:t=P:problem=przy kluczu błędnie F# C# G#	!	!LO:TX:t=P:problem=przy kluczu f# cc# g# dd#	!	!LO:TX:t=P:problem=przy kluczu f# cc# g# dd#	!	!	!
4.r	4.ryy	8B/L	p	1.r	.	.	.
.	.	8B/	.	.	.	.	.
.	.	8B/J	.	.	.	.	.
(4.BB/	4.GGn\	8B/L	.	.	.	.	.
.	.	8B/	.	.	.	.	.
.	.	8B/J	.	.	.	.	.
4.E/	4.Cn\	8B/L	.	.	.	.	.
.	.	8B/	.	.	.	.	.
.	.	8B/J	.	.	.	.	.
4.F#/)	4.D#X 4.BB\	8B/L	.	.	.	.	.
.	.	8B/	.	.	.	.	.
.	.	8B/J	.	.	.	.	.
*v	*v	*	*	*	*	*	*
=2!|:	=2!|:	=2!|:	=2!|:	=2!|:	=2!|:	=2!|:
*>B	*>B	*	*>B	*	*	*
*2\right	*	*	*	*	*	*
*tremolo	*tremolo	*	*	*	*	*
8BB 8EE\L	8B< 8Gn< 8E</L	.	4.B/	Je-	Tak	.
8BB 8EE\	8B< 8Gn< 8E</	.	.	.	.	.
8BB 8EE\	8B< 8Gn< 8E</J	.	.	.	.	.
*	*Xtremolo	*	*	*	*	*
8BB 8EE\	8A#X< 8G< 8E</L	.	4A#X/	-szcze	w_na-	.
8BB 8EE\	8A#< 8G< 8E</	.	.	.	.	.
8BB 8EE\J	8B< 8G< 8E</J	.	8B/	na	-szym	.
*	*tremolo	*	*	*	*	*
8BB 8EE\L	8e 8B< 8G< 8E</L	.	[4.e/	zie-	by-	.
8BB 8EE\	8e 8B< 8G< 8E</	.	.	.	.	.
8BB 8EE\	8e 8B< 8G< 8E</	.	.	.	.	.
8BB 8EE\	8e 8B< 8G< 8E</	.	4e/]	mi	.	.
8BB 8EE\	8e 8B< 8G< 8E</	.	.	.	.	.
8BB 8EE\J	8e 8B< 8G< 8E</J	.	8e/	pół	-cie	.
=3	=3	=3	=3	=3	=3	=3
*	*	*	*^	*	*	*
!LO:SIC:v:n=1:s=8D#	!	!	!	!	!	!	!
8D 8BB 8EE\L	8f# 8B< 8A</L	.	4.f#/	4f#\	wio-	szczę-	.
!LO:SIC:v:n=1:s=8D#	!	!	!	!	!	!	!
8D 8BB 8EE\	8f# 8B< 8A</	.	.	.	.	.	.
!LO:SIC:v:n=1:s=8D#	!	!	!	!	!	!	!
8D 8BB 8EE\J	8f# 8B< 8A</J	.	.	8f#\	.	-śćia	.
*Xtremolo	*Xtremolo	*	*	*	*	*	*
8C#L 8BB 8EE\	8eL 8B< 8A</	.	4e/	2.ryy	-sna	jesz-	.
8C# 8BB 8EE\	8e 8B< 8A</	.	.	.	.	.	.
!LO:SIC:v:n=1:s=8D#J	!	!	!	!	!	!	!
8DJ 8BB 8EE\	8f#J 8B< 8A</	.	8f#/	.	pół	-cze	.
*tremolo	*tremolo	*	*	*	*	*	*
8E 8BB 8EE\L	8gn 8e 8B< 8Gn</L	.	[4.gn/	.	zi-	nié	.
8E 8BB 8EE\	8gn 8e 8B< 8Gn</	.	.	.	.	.	.
8E 8BB 8EE\	8gn 8e 8B< 8Gn</	.	.	.	.	.	.
8E 8BB 8EE\	8gn 8e 8B< 8Gn</	.	4g/]	4.ryy	.	.	.
8E 8BB 8EE\	8gn 8e 8B< 8Gn</	.	.	.	.	.	.
8E 8BB 8EE\J	8gn 8e 8B< 8Gn</J	.	8g/	.	-ma	ma	.
*	*	*	*v	*v	*	*	*
!!LO:LB:g=original
=4	=4	=4	=4	=4	=4	=4
*k[f#c#g#d#]	*	*	*	*	*	*
!LO:TX:t=P:problem=przy kluczu F# C# G# D#	!	!	!	!	!	!
8C# 8CC#\L	8gn 8e 8cn 8Gn</L	.	4.gn/	jesz-	jesz-	.
8C# 8CC#\	8gn 8e 8cn 8Gn</	.	.	.	.	.
8C# 8CC#\	8gn 8e 8cn 8Gn</	<	.	.	.	.
8C# 8CC#\	8gn 8e 8cn 8Gn</	.	4e/	-cze	-cze	.
8C# 8CC#\	8gn 8e 8cn 8Gn</	.	.	.	.	.
8C# 8CC#\J	8gn 8e 8cn 8Gn</J	.	8f#/	bez	dusz	.
8BB 8BBB/L	8g 8dn 8G</L	.	[4.g/	liś-	na-	.
8BB 8BBB/	8g 8dn 8G</	.	.	.	.	.
8BB 8BBB/J	8g 8dn 8G</J	.	.	.	.	.
8GGn 8GGGn/L	8g 8d 8B/L	.	4g/]	-ci	.	.
8GGn 8GGGn/	8g 8d 8B/	.	.	.	.	.
8GGn 8GGGn/J	8g 8d 8B/J	[	8g/	i	-szych	.
.	.	>	.	.	.	.
=5	=5	=5	=5	=5	=5	=5
*	*Xtremolo	*	*	*	*	*
8Dn 8AA 8DDn\L	8f#L 8c#< 8A</	.	(4f#/	drze-	świa-	.
8Dn 8AA 8DDn\	8f# 8c#< 8A</	.	.	.	.	.
8Dn 8AA 8DDn\	8eJ 8c#< 8A</	.	8e/)	.	-tło	.
8Dn 8AA 8DDn\	8dnL 8A< 8F#</	.	4dn/	-wa	się	.
8Dn 8AA 8DDn\	8d 8A< 8F#</	.	.	.	.	.
8Dn 8AA 8DDn\J	8cnJ 8A< 8F#</	.	8cn/	i	o-	.
*	*tremolo	*	*	*	*	*
8Dn 8GGn\L	8B< 8Gn</L	]	[4.B/	krza-	-grze-	.
8Dn 8GGn\	8B< 8Gn</	.	.	.	.	.
8Dn 8GGn\J	8B< 8Gn</J	.	.	.	.	.
8BB 8BBB\L	8B< 8A< 8F#< 8D#X</L	.	4B/]	.	.	.
8BB 8BBB\	8B< 8A< 8F#< 8D#X</	.	.	.	.	.
8BB 8BBB\J	8B< 8A< 8F#< 8D#X</J	.	8B/	-ki,	-wa,	.
=6	=6	=6	=6	=6	=6	=6
8BB 8EEL	8B< 8Gn< 8E</L	.	4.B/	jesz-	jesz-	.
8BB 8EE	8B< 8Gn< 8E</	.	.	.	.	.
8BB 8EE	8B< 8Gn< 8E</J	.	.	.	.	.
*	*Xtremolo	*	*	*	*	*
8BB 8EE	8A#X<L 8G< 8E</	.	4A#X/	-cze	-cze	.
8BB 8EE	8A#< 8G< 8E</	.	.	.	.	.
8BB 8EE	8B<J 8G< 8E</	.	8B/	snieg	za-	.
*	*tremolo	*	*	*	*	*
8BB 8EE	8e 8B< 8G< 8E</L	.	[4.e/	le-	-bo-	.
8BB 8EE	8e 8B< 8G< 8E</	.	.	.	.	.
8BB 8EE	8e 8B< 8G< 8E</	.	.	.	.	.
8BB 8EE	8e 8B< 8G< 8E</	.	4e/]	.	bon	.
8BB 8EE	8e 8B< 8G< 8E</	.	.	.	.	.
8BB 8EEJ	8e 8B< 8G< 8E</J	.	8e/	-ży	w_swych	.
!!LO:LB:g=original
=7	=7	=7	=7	=7	=7	=7
*	*	*	*^	*	*	*
8D# 8BB 8EE\L	8f# 8B< 8A</L	.	4f#/	4.f#\	jesz-	pę-	.
!	!LO:TX:a:t=cres-cen-do.:problem=dynamics with extention lines	!LO:HP:t=cres-cen-do:ext=ud	!	!	!	!	!
8D# 8BB 8EE\	8f# 8B< 8A</	<	.	.	.	.	.
8D# 8BB 8EE\J	8f# 8B< 8A</J	.	8f#/	.	-cze	.	.
*Xtremolo	*Xtremolo	*	*	*	*	*	*
8C#XL 8BB 8EE\	8eL 8B< 8A</	.	4e/	2.ryy	kwia-	-tach	.
8C# 8BB 8EE\	8e 8B< 8A</	.	.	.	.	.	.
8D#J 8BB 8EE\	8f#J 8B< 8A</	.	8f#/	.	-tów	nas	.
*tremolo	*tremolo	*	*	*	*	*	*
!	!LO:SIC:v:n=1:s=8gn	!	!	!	!	!	!
8E 8BB 8EE\L	8g# 8e 8B< 8Gn</L	.	[4.gn/	.	nie-	trzy-	.
!	!LO:SIC:v:n=1:s=8gn	!	!	!	!	!	!
8E 8BB 8EE\	8g# 8e 8B< 8Gn</	.	.	.	.	.	.
!	!LO:SIC:v:n=1:s=8gn	!	!	!	!	!	!
8E 8BB 8EE\J	8g# 8e 8B< 8Gn</J	.	.	.	.	.	.
!	!LO:SIC:v:n=1:s=8gn	!	!	!	!	!	!
8Dn 8DDn\L	8g# 8e 8G</L	.	4g/]	4.ryy	.	.	.
!	!LO:SIC:v:n=1:s=8gn	!	!	!	!	!	!
8Dn 8DDn\	8g# 8e 8G</	.	.	.	.	.	.
!	!LO:SIC:v:n=1:s=8gn	!	!	!	!	!	!
8Dn 8DDn\J	8g# 8e 8G</J	.	8g/	.	-ma;	-ma,	.
*	*	*	*v	*v	*	*	*
=8	=8	=8	=8	=8	=8	=8
8Cn 8CCn/L	8a 8gn 8e 8A</L	.	4.a/	jesz-	jesz-	.
8Cn 8CCn/	8a 8gn 8e 8A</	.	.	.	.	.
8Cn 8CCn/	8a 8gn 8e 8A</	.	.	.	.	.
8Cn 8CCn/	8a 8gn 8e 8A</	.	4gn/	-cze	-cze	.
8Cn 8CCn/	8a 8gn 8e 8A</	.	.	.	.	.
8Cn 8CCn/J	8a 8gn 8e 8A</J	.	8a/	z_wę-	się	.
8Dn 8DDn\L	8b 8g 8dn 8B</L	.	[4.b\	-drów-	o-	.
8Dn 8DDn\	8b 8g 8dn 8B</	.	.	.	.	.
8Dn 8DDn\	8b 8g 8dn 8B</	.	.	.	.	.
8Dn 8DDn\	8b 8g 8dn 8B</	.	4b\]	.	.	.
8Dn 8DDn\	8b 8g 8dn 8B</	.	.	.	.	.
8Dn 8DDn\J	8b 8g 8dn 8B</J	.	8b\	-ki	-ko	.
=9	=9	=9	=9	=9	=9	=9
8Dn 8DDn/L	8a 8e 8cn/L	.	4a\	nie	hoj-	.
8Dn 8DDn/	8a 8e 8cn/	.	.	.	.	.
*	*Xtremolo	*	*	*	*	*
8Dn 8DDn/	8a 8e 8cn/J	.	8a\	wró-	-ną	.
8Dn 8DDn/	8bL 8f# 8dn/	.	4b\	-ci-	łzą	.
8Dn 8DDn/	8b 8f# 8d/	.	.	.	.	.
8Dn 8DDn/J	8f#J 8d 8cn/	[	8f#/	-ły	za-	.
*	*tremolo	*	*	*	*	*
8GGn/L	8gn 8d 8B/L	>	4.gn/	pta-	-le-	.
8GGn/	8gn 8d 8B/	.	.	.	.	.
8GGn/	8gn 8d 8B/	.	.	.	.	.
8GGn/	8gn 8d 8B/	.	4g/	-ki.	-wa.	.
8GGn/	8gn 8d 8B/	.	.	.	.	.
8GGn/J	8gn 8d 8B/J	]	8r	.	.	.
!!LO:PB:g=original
=10	=10	=10	=10	=10	=10	=10
!	!	!LO:DY:t=pp.	!	!	!	!LO:DY:t=p.
8A 8BBL	8f# 8d# 8B/L	pp	4.f#/	Lecz	Lecz	p
8A 8BB	8f# 8d# 8B/	.	.	.	.	.
!	!	!	!LO:TX:a:i:t=dolce.	!	!	!
8A 8BB	8f# 8d# 8B/	.	.	.	.	.
8A 8BB	8f# 8d# 8B/	.	4f#/	pa-	jas-	.
8A 8BB	8f# 8d# 8B/	.	.	.	.	.
8A 8BB	8f# 8d# 8B/J	.	8f#/	-trzaj	-ne	.
8A 8BB	8b 8f# 8d# 8B/L	.	4.b\	w gó-	wróż-	.
8A 8BB	8b 8f# 8d# 8B/	.	.	.	.	.
8A 8BB	8b 8f# 8d# 8B/	.	.	.	.	.
8A 8BB	8b 8f# 8d# 8B/	.	8b\	-rę,	-by	.
8A 8BB	8b 8f# 8d# 8B/	.	8r	.	.	.
8A 8BBJ	8b 8f# 8d# 8B/J	.	8b\	już	już	.
=11	=11	=11	=11	=11	=11	=11
8G# 8BB\L	8b 8e 8B/L	.	(4cc#\	wio-	wi-	>
8G# 8BB\	8b 8e 8B/	.	.	.	.	.
8G# 8BB\	8b 8e 8B/	.	8b\)	.	.	.
8G# 8BB\	8b 8e 8B/	.	4a/	-sna	-dać	.
8G# 8BB\	8b 8e 8B/	.	.	.	.	.
8G# 8BB\J	8b 8e 8B/J	.	8g#/	na	na	.
8F# 8BB\L	8b 8f# 8d# 8B/L	.	[4.b/	nie-	nie-	]
8F# 8BB\	8b 8f# 8d# 8B/	.	.	.	.	.
8F# 8BB\	8b 8f# 8d# 8B/	.	.	.	.	.
8F# 8BB\	8b 8f# 8d# 8B/	.	4b/]	.	.	.
8F# 8BB\	8b 8f# 8d# 8B/	.	.	.	.	.
8F# 8BB\J	8b 8f# 8d# 8B/J	.	16a/LL	-bie,	-bie,	.
.	.	.	16g#/JJ	.	.	.
=12	=12	=12	=12	=12	=12	=12
8F# 8BB/L	8f# 8d# 8B/L	.	4.f#/	patrz	więc	.
8F# 8BB/	8f# 8d# 8B/	.	.	.	.	.
8F# 8BB/	8f# 8d# 8B/	<	.	.	.	.
8F# 8BB/	8f# 8d# 8B/	.	4d#/	jak	na	.
8F# 8BB/	8f# 8d# 8B/	.	.	.	.	.
8F# 8BB/J	8f# 8d# 8B/J	.	8f#/	wy-	mar-	<
8F# 8BB 8AA/L	8b 8f# 8d# 8B/L	.	[4.b\	-so-	-co-	.
8F# 8BB 8AA/	8b 8f# 8d# 8B/	.	.	.	.	.
8F# 8BB 8AA/	8b 8f# 8d# 8B/	.	.	.	.	.
8F# 8BB 8AA/	8b 8f# 8d# 8B/	.	4b\]	.	.	.
8F# 8BB 8AA/	8b 8f# 8d# 8B/	.	.	.	.	[[
8F# 8BB 8AA/J	8b 8f# 8d# 8B/J	[	8b\	-ko	-we	.
!!LO:LB:g=original
=13	=13	=13	=13	=13	=13	=13
!	!	!LO:DY:rj:t=f.	!LO:TX:a:i:t=ritard.	!	!	!
8G# 8BB 8GG#/L	8b 8e 8B/L	f	4ee\	wzbi-	mniej	.
8G# 8BB 8GG#/	8b 8e 8B/	.	.	.	.	.
8G# 8BB 8GG#/J	8b 8e 8B/J	>	8b\	-ło	zwa-	.
*	*Xtremolo	*	*	*	*	*
8E 8BB 8EE/L	8bL 8g# 8B/	.	8b/L	się	-ża-	>
8E 8BB 8EE/	8a 8f# 8B/	.	8a/J	.	.	.
8E 8BB 8EE/J	8g#J 8e 8B/	.	8g#/	już	-jąc	.
*	*tremolo	*	*	*	*	*
8BB\L	8f# 8d# 8B/L	.	[4.f#/	słoń-	chło-	.
8BB\	8f# 8d# 8B/	.	.	.	.	.
8BB\J	8f# 8d# 8B/J	]	.	.	.	]]
8BB\L	8B< 8A< 8F#< 8D#</L	.	4f#/]	.	.	.
8BB\	8B< 8A< 8F#< 8D#</	.	.	.	.	.
!	!	!	!	!	!	!LO:DY:t=p.
8BB\J	8B< 8A< 8F#< 8D#</J	.	8B/	-ce	-dy	p
=14	=14	=14	=14	=14	=14	=14
*	*	*	*^	*	*	*
8BB 8EE\L	8B< 8G#< 8E</L	.	4.B/	2.ryy	i	z_wia-	.
8BB 8EE\	8B< 8G#< 8E</	.	.	.	.	.	.
8BB 8EE\	8B< 8G#< 8E</	.	.	.	.	.	.
8BB 8EE\	8B< 8G#< 8E</	.	4A#X/	.	bia-	-rą	.
!	!LO:TX:t=cresc. ed. accelerando.:problem=dynamics with extention lines	!LO:HP:t=cresc. ed. accelerando.:ext=s	!	!LO:TX:t=cresc&colon; ed accelerando.:problem=dynamics with extention lines	!	!	!LO:HP:t=cresc&colon; ed accelerando.:ext=s
8BB 8EE\	8B< 8G#< 8E</	<	.	.	.	.	<
8BB 8EE\J	8B< 8G#< 8E</J	.	8B/	.	-łe	w_czas	.
8C# 8EE\L	8e 8A< 8E</L	.	[4.e/	4.ryy	chmur-	le-	.
8C# 8EE\	8e 8A< 8E</	.	.	.	.	.	.
8C# 8EE\	8e 8A< 8E</	.	.	.	.	.	.
8C# 8EE\	8e 8A< 8E</	.	8e/L]	8ryy	.	.	.
8C# 8EE\	8e 8A< 8E</	.	8d#/J	8d#\	.	-pszy	.
8C# 8EE\J	8e 8A< 8E</J	.	8e/	8e\	-ki	bie-	.
=15	=15	=15	=15	=15	=15	=15	=15
8D# 8BB 8EE\L	8f# 8B< 8A</L	.	4f#/	4.f#\	zda-	-gnij-	.
8D# 8BB 8EE\	8f# 8B< 8A</	.	.	.	.	.	.
8D# 8BB 8EE\	8f# 8B< 8A</	.	8f#/	.	-je	.	.
8D# 8BB 8EE\	8f# 8B< 8A</	.	4e#X/	2.ryy	się	-my	[
8D# 8BB 8EE\	8f# 8B< 8A</	.	.	.	.	.	.
8D# 8BB 8EE\J	8f# 8B< 8A</J	.	8f#/	.	do	do	.
8Dn 8BB 8EE\L	8g# 8e 8B< 8G#</L	.	[4.b/	.	sie-	sie-	.
8Dn 8BB 8EE\	8g# 8e 8B< 8G#</	.	.	.	.	.	.
8Dn 8BB 8EE\	8g# 8e 8B< 8G#</	.	.	.	.	.	.
8Dn 8BB 8EE\	8g# 8e 8B< 8G#</	.	4b/]	4.ryy	.	.	.
8Dn 8BB 8EE\	8g# 8e 8B< 8G#</	.	.	.	.	.	.
8Dn 8BB 8EE\J	8g# 8e 8B< 8G#</J	[	8g#/	.	-bie	-bie	.
*	*	*	*v	*v	*	*	*
!!LO:LB:g=original
=16	=16	=16	=16	=16	=16	=16
!	!LO:TX:t=cres_cen_do:problem=dynamics with extention lines	!LO:HP:t=cres_cen_do:ext=cd	!	!	!	!
8C# 8AA/L	8a 8e 8A/L	<	4.e/	bie-	jak	.
8C# 8AA/	8a 8e 8A/	.	.	.	.	.
8C# 8AA/	8a 8e 8A/	.	.	.	.	.
8C# 8AA/	8a 8e 8A/	.	4c#/	-gną	o-	.
8C# 8AA/	8a 8e 8A/	.	.	.	.	.
8C# 8AA/J	8a 8e 8A/J	.	8e/	przez	-we	.
8F# 8AA/L	8a 8d# 8A/L	.	[4.a/	czté-	chmur-	.
8F# 8AA/	8a 8d# 8A/	.	.	.	.	.
8F# 8AA/	8a 8d# 8A/	.	.	.	.	.
8F# 8AA/	8a 8d# 8A/	.	4a/]	.	-ki	.
8F# 8AA/	8a 8d# 8A/	.	.	.	.	.
8F# 8AA/J	8a 8d# 8A/J	.	8a/	-ry	zwias-	.
=17	=17	=17	=17	=17	=17	=17
*	*	*	*^	*	*	*
8G# 8E 8AA/L	8b 8d#/L	.	4b/	4b.\	wi-	-tun-	.
8G# 8E 8AA/	8b 8d#/	.	.	.	.	.	.
8G# 8E 8AA/	8b 8d#/	.	8b/	.	-dno-	.	.
8G# 8E 8AA/	8b 8d#/	.	4a/	4.ryy	-krę-	-ki	.
8G# 8E 8AA/	8b 8d#/	.	.	.	.	.	.
8G# 8E 8AA/J	8b 8d#/J	.	8b/	.	-gu	po-	.
*	*Xtremolo	*	*	*	*	*	*
8A 8AA/L	8cc#L 8c#/	.	[4.cc#\	2.ryy	koń-	-go-	.
8A 8AA/	8cc# 8e/	.	.	.	.	.	.
8A 8AA/	8cc#J 8e/	.	.	.	.	.	.
*	*tremolo	*	*	*	*	*	*
8A 8AA/	8ee 8cc# 8e/L	.	4cc#\]	.	.	.	.
8A 8AA/	8ee 8cc# 8e/	.	.	.	.	.	.
8A 8AA/J	8ee 8cc# 8e/J	[[	8ee\	.	-cu,	-dy,	.
*	*	*	*v	*v	*	*	*
=18	=18	=18	=18	=18	=18	=18
!	!	!LO:DY:t=ff..	!	!	!	!
8A 8F# 8BB/L	8dd# 8f# 8d#/L	ff	4.dd#^\	już	z_wia-	.
8A 8F# 8BB/	8dd# 8f# 8d#/	.	.	.	.	.
8A 8F# 8BB/	8dd# 8f# 8d#/J	.	.	.	.	.
*	*Xtremolo	*	*	*	*	*
8A 8F# 8BB/	8cc#L 8f# 8d#/	.	4cc#\	bia-	-rą	.
8A 8F# 8BB/	8cc# 8f# 8d#/	.	.	.	.	.
8A 8F# 8BB/J	8bJ 8f# 8d#/	.	8b\	-łe	w_czas	.
*	*tremolo	*	*	*	*	*
8G# 8BB/L	8b 8e/L	.	[4.b\	chmur-	lep-	.
8G# 8BB/	8b 8e/	.	.	.	.	.
8G# 8BB/	8b 8e/J	.	.	.	.	.
*	*Xtremolo	*	*	*	*	*
8G# 8BB/	8bL 8e/	.	4b\]	.	-szy	.
8G# 8BB/	8b 8e/	.	.	.	.	.
8G# 8BB/J	8eeJ 8b 8e/	.	8ee\	-ki	bieg-	.
!!LO:LB:g=original
=19	=19	=19	=19	=19	=19	=19
8A 8F# 8BB\L	8dd#L 8f#/	.	(4dd#\	zda-	-nij-	.
8A 8F# 8BB\	8dd# 8f#/	>	.	.	.	.
8A 8F# 8BB\	8cc#J 8f# 8d#/	.	8cc#\)	je	.	.
8A 8F# 8BB\	8bL 8d#/	.	4b\	się	-my	.
8A 8F# 8BB\	8b 8d#/	.	.	.	.	.
8A 8F# 8BB\J	8aJ 8d#/	.	8a/	do	do	.
*	*tremolo	*	*	*	*	*
8F# 8BB#X\L	8a 8d#/L	.	4.a/	sie-	sie-	.
8F# 8BB#X\	8a 8d#/	.	.	.	.	.
8F# 8BB#X\	8a 8d#/J	.	.	.	.	.
8F# 8BB#X\	8g# 8d#/L	.	4g#/	-bie,	-bie,	.
8F# 8BB#X\	8g# 8d#/	.	.	.	.	.
8F# 8BB#X\J	8g# 8d#/J	]	8r	.	.	.
=20	=20	=20	=20	=20	=20	=20
8E 8C#\L	8a 8c#/L	.	4.g#/	bie-	jak	.
8E 8C#\	8a 8c#/	.	.	.	.	.
8E 8C#\	8a 8c#/J	.	.	.	.	.
*	*Xtremolo	*	*	*	*	*
8E 8C#\	8f##XL 8c#/	.	4f##X/	-gną	o-	.
8E 8C#\	8f## 8c#/	.	.	.	.	.
8E 8C#\J	8g#J 8c#/	.	8g#/	przez	-we	.
*	*tremolo	*	*	*	*	*
([4.G# 4.E [4.GG#/	8b 8e 8B/L	.	[4.b\	czte-	chmur-	.
.	8b 8e 8B/	.	.	.	.	.
.	8b 8e 8B/J	.	.	.	.	.
*	*Xtremolo	*	*	*	*	*
4G#] 4GG#/]	8bL 8e/	.	4b\]	.	-ki	.
.	8b 8e/	.	.	.	.	.
8E 8EE/)	8cc#J 8e/	.	8cc#\	-ry	zwias-	.
=21	=21	=21	=21	=21	=21	=21
!LO:TX:a:i:t=ralent.	!	!	!	!	!	!
2.BB 2.BBB/	(8bL 8f# 8d#/	.	(4b/	wi-	-tun-	.
.	8b 8f# 8d#/	.	.	.	.	.
.	8aJ 8f# 8e 8c#/	.	8f#/)	-dno-	.	.
.	8g#L 8e 8B/	.	4g#/	-krę-	-ki	.
.	8g# 8e 8B/	.	.	.	.	.
.	8f#J 8d# 8A/	.	8d#/	-gu	po-	.
*	*tremolo	*	*	*	*	*
!LO:TX:a:i:t=a tempo.	!	!	!	!	!	!
8BB 8EE/L	8e 8G#/L	<	4.e/	koń-	-go-	.
8BB 8EE/	8e 8G#/	.	.	.	.	.
8BB 8EE/	8e 8G#/	.	.	.	.	.
8BB 8EE/	8e 8G#/	.	4e/	-ce.	-dy.	.
8BB 8EE/	8e 8G#/	.	.	.	.	.
8BB 8EE/J	8e 8G#/)J	[[	8r	.	.	.
!!LO:LB:g=original
=22	=22	=22	=22	=22	=22	=22
*	*^	*	*	*	*	*
*	*Xtremolo	*tremolo	*	*	*	*	*
*	*	*2\right	*	*	*	*	*
*	*	*all\right	*	*	*	*	*
!	!LO:TX:t=cres_cen_do:problem=dynamics with extention lines	!LO:HP:t=cres_cen_do:ext=cd	!	!	!	!	!
8Cn 8EE\L	(>(4.e/	8A< 8E</L	<	1.ryy	.	.	.
8Cn 8EE\	.	8A< 8E</	.	.	.	.	.
8Cn 8EE\	.	8A< 8E</	.	.	.	.	.
8Cn 8EE\	4d#/	8A< 8E</	.	.	.	.	.
8Cn 8EE\	.	8A< 8E</	.	.	.	.	.
8Cn 8EE\J	8e/)	8A< 8E</J	.	.	.	.	.
8BB 8EE\L	2.g 2.e^/	8B< 8G</L	.	.	.	.	.
8BB 8EE\	.	8B< 8G</	.	.	.	.	.
8BB 8EE\	.	8B< 8G</	.	.	.	.	.
8BB 8EE\	.	8B< 8G</	.	.	.	.	.
8BB 8EE\	.	8B< 8G</	.	.	.	.	.
8BB 8EE\J	.	8B< 8G</J	.	.	.	.	.
=23	=23	=23	=23	=23	=23	=23	=23
8Dn 8DDn/L	4.a 4.f#/	8dn 8cn\L	.	1.ryy	.	.	.
8Dn 8DDn/	.	8dn 8cn\	.	.	.	.	.
8Dn 8DDn/	.	8dn 8cn\	.	.	.	.	.
8Dn 8DDn/	4gn 4e/	8dn 8cn\	.	.	.	.	.
8Dn 8DDn/	.	8dn 8cn\	.	.	.	.	.
8Dn 8DDn/J	8a 8f#/)	8dn 8cn\J	[	.	.	.	.
!	!	!	!LO:DY:t=f.	!	!	!	!
8GGn/L	4b 4g/	8d 8B\L	f	.	.	.	.
8GGn/	.	8d 8B\	.	.	.	.	.
8GGn/J	8r	8d 8B\J	>	.	.	.	.
8BB 8BBB/L	4.b 4.f#X/	8d#X 8B\L	.	.	.	.	.
8BB 8BBB/	.	8d#X 8B\	.	.	.	.	.
8BB 8BBB/J	.	8d#X 8B\J	]	.	.	.	.
=24:|!	=24:|!	=24:|!	=24:|!	=24:|!	=24:|!	=24:|!	=24:|!
*>C	*>C	*	*	*>C	*	*	*
[>2.BB [2.EE\	1.gn	8e 8Gn<\L	.	1.ryy	.	.	.
.	.	8e 8G<\	.	.	.	.	.
.	.	8e 8G<\	.	.	.	.	.
.	.	8e 8G<\	.	.	.	.	.
.	.	8e 8G<\	.	.	.	.	.
.	.	8e 8G<\J	.	.	.	.	.
8BB]L 8EE\]	.	8e 8G<\L	.	.	.	.	.
(8Cn\	.	8e 8G<\	.	.	.	.	.
8BB\J	.	8e 8G<\	.	.	.	.	.
8GGn/L)	.	8e 8G<\	.	.	.	.	.
8EE|/	.	8e 8G<\	.	.	.	.	.
8BBB|/J	.	8e 8G<\J	.	.	.	.	.
*	*	*Xtremolo	*	*	*	*	*
*	*v	*v	*	*	*	*	*
=25	=25	=25	=25	=25	=25	=25
*8vb	*	*	*	*	*	*
!LO:TX:t=P:problem=fermata na pięciolinii	!LO:SIC:v:n=3:s=1.Gn	!	!	!	!	!
1.EE;	1.e 1.B< 1.G#<;	.	1.ryy	.	.	.
*X8vb	*	*	*	*	*	*
==	==	==	==	==	==	==
*-	*-	*-	*-	*-	*-	*-
!!!system-decoration: {<p1>(p2)}
!!!RDF**kern: > = above
!!!RDF**kern: < = below
!!!RDF**kern: | = vertical stroke
!!!ENC: Andrzej Kubiczek
!!!END: 2021-04-15
!!!ENC: Berenika Jozajtis
!!!END: 2021-03-29
!!!YEC: Copyright 2022 Narodowy Instytut Fryderyka Chopina (https://polishscores.org)
!!!YEM: License CC-BY-4.0 (https://creativecommons.org/licenses/by/4.0)
